X: 1576
T: Jacko's Home Sweet Home Waltz
B: australian traditional tunes wiki
M:3/4
L:1/8
R: Waltz
Q: 1/4=100
K:D
V:1 
"G"DE|:"D"F4A2|"G"G3FE2|"D"A3BA2|F4A2|"G"G3FE2|"Em"G3FE2|1"D"A3BA2|F3ED2:|2"D"D6-|"A7"D4A2||
|:"D"d2ddd2|"A7"c4"G"B2|"D"A2AA AA|F3G AF|"G"G3FE2|G3FE2|1"D"A3BA2|F6:|2"D"D3G AF|d6||
|:"D"a3ba2|f4f2|"A7"g3ag2|e4z2|1cd ef ag|e2 z2z2|"D"de fa ba|f2 z2 z2:|2"A7"cd ef ab|c'b ag fc|"D"d2zf af|d'4z2||
% abcbook-tune_id 6342d53a2e0c72af1a937ce1


% abcbook-boost 0
% abcbook-tablature 
% abcbook-transpose 
% abcbook-lastupdated 1665324371946
% abcbook-soundfonts 
% abcbook-repeats 1
% NFF Book 2007

